res/skins/Tango/graphics/fxFlow_maxi_noFocus_Fx1-2-3.svg

<?xml version="1.0" encoding="UTF-8" standalone="no"?>
<!-- Created with Inkscape (http://www.inkscape.org/) -->

<svg
   xmlns:dc="http://purl.org/dc/elements/1.1/"
   xmlns:cc="http://creativecommons.org/ns#"
   xmlns:rdf="http://www.w3.org/1999/02/22-rdf-syntax-ns#"
   xmlns:svg="http://www.w3.org/2000/svg"
   xmlns="http://www.w3.org/2000/svg"
   version="1.1"
   width="30"
   height="17"
   id="svg3983">
  <metadata
     id="metadata3991">
    <rdf:RDF>
      <cc:Work
         rdf:about="">
        <dc:format>image/svg+xml</dc:format>
        <dc:type
           rdf:resource="http://purl.org/dc/dcmitype/StillImage" />
        <dc:title></dc:title>
      </cc:Work>
    </rdf:RDF>
  </metadata>
  <defs
     id="defs3989" />
  <path
     d="M 29.999997,8.99993 15,17 0,8.99993 0,17 29.999997,17 z"
     id="path3985"
     style="fill:#333333" />
  <path
     d="M 30,0 3e-6,0 0,7.9999 l 0.2265625,0 L 15,15.880725 29.765625,7.9999 l 0.234372,0 z"
     id="path3985-3"
     style="fill:#333333" />
</svg>

<!-- Created with Inkscape (http://www.inkscape.org/) -->
<svg id="svg3983" width="30" height="17" version="1.1" xmlns="http://www.w3.org/2000/svg"><path id="path3985" d="m30 8.9999-15 8.0001-15-8.0001v8.0001h30z" fill="#333"/><path id="path3985-3" d="m30 0h-30l-3e-6 7.9999h0.22656l14.773 7.8808 14.766-7.8808h0.23437z" fill="#333"/></svg>
